icons/folder-queue.svg

<svg xmlns="http://www.w3.org/2000/svg" viewBox="0 0 32 32"><path fill="#039be5" d="m13.844 7.536-1.288-1.072A2 2 0 0 0 11.276 6H4a2 2 0 0 0-2 2v16a2 2 0 0 0 2 2h24a2 2 0 0 0 2-2V10a2 2 0 0 0-2-2H15.124a2 2 0 0 1-1.28-.464Z"/><path fill="#b3e5fc" d="M24 16v-2h-3a1 1 0 0 0-1 1v10a1 1 0 0 0 1 1h3v-2h-2v-8Zm8-2v-2h-5a1 1 0 0 0-1 1v14a1 1 0 0 0 1 1h5v-2h-4V14Zm-16 2h2v8h-2z"/></svg>

<svg xmlns="http://www.w3.org/2000/svg" viewBox="0 0 32 32">
  <path d="M13.84376,7.53645l-1.28749-1.0729A2,2,0,0,0,11.27591,6H4A2,2,0,0,0,2,8V24a2,2,0,0,0,2,2H28a2,2,0,0,0,2-2V10a2,2,0,0,0-2-2H15.12412A2,2,0,0,1,13.84376,7.53645Z" style="fill: #039be5"/>
  <g>
    <path d="M24,16V14H21a1,1,0,0,0-1,1V25a1,1,0,0,0,1,1h3V24H22V16Z" style="fill: #b3e5fc"/>
    <path d="M32,14V12H27a1,1,0,0,0-1,1V27a1,1,0,0,0,1,1h5V26H28V14Z" style="fill: #b3e5fc"/>
    <rect x="16" y="16" width="2" height="8" style="fill: #b3e5fc"/>
  </g>
</svg>
